X: 13
T: Pollonesse #13
M: 3/4
L: 1/16
K: D
Q:120
d4 D2E2 F2G2|A2G2 A2B2 c2A2|d4 D2E2 F2G2|A2B2 A4A,4:|
(d2f2) (f2e2) (e2d2)|d2ef g4f4|(d2f2) (f2e2) (e2d2)|d2ef g4f4|
f2a2 A2B2 c2d2|e2c2 d4D4:|

